svgs/ente_photos.svg

<svg width="192" height="192" viewBox="0 0 192 192" fill="none" xmlns="http://www.w3.org/2000/svg">
<path d="M141.625 101.667H170C170 101.667 170 81.8383 156.128 81.8383C142.255 81.8383 141.625 101.667 141.625 101.667ZM141.625 101.667C141.625 101.667 140.364 121.099 156.758 122.358C163.694 122.891 169.369 115.461 169.369 115.461" stroke="black" stroke-width="12" stroke-linecap="round" stroke-linejoin="round"/>
<path d="M22.0224 101.667H50.3977C50.3977 101.667 50.3977 81.8383 36.5253 81.8383C22.653 81.8383 22.0224 101.667 22.0224 101.667ZM22.0224 101.667C22.0224 101.667 20.7613 121.099 37.1559 122.358C44.0921 122.891 49.7671 115.461 49.7671 115.461" stroke="black" stroke-width="12" stroke-linecap="round" stroke-linejoin="round"/>
<path d="M64.5033 78.8729V122.365M94.1568 122.365V101.163C93.7723 88.603 83.6713 79.8807 73.7312 83.5258C71.3618 84.3947 69.1609 85.8307 67.259 87.7486L65.9127 89.1063" stroke="black" stroke-width="12" stroke-linecap="round" stroke-linejoin="round"/>
<path d="M116.94 68V116.911C116.94 119.73 118.884 122.253 121.634 122.874C125.077 123.651 127.838 123.754 131.718 120.882M106.018 84.7935H127.863" stroke="black" stroke-width="12" stroke-linecap="round" stroke-linejoin="round"/>
</svg>

<svg width="192" height="192" viewBox="0 0 192 192" fill="none" xmlns="http://www.w3.org/2000/svg"><path d="M141.625 101.667H170s0-19.829-13.872-19.829c-13.873 0-14.503 19.829-14.503 19.829Zm0 0s-1.261 19.432 15.133 20.691c6.936.533 12.611-6.897 12.611-6.897M22.022 101.667h28.376s0-19.829-13.873-19.829c-13.872 0-14.503 19.829-14.503 19.829Zm0 0s-1.26 19.432 15.134 20.691c6.936.533 12.611-6.897 12.611-6.897M64.503 78.873v43.492m29.654 0v-21.202c-.385-12.56-10.486-21.282-20.426-17.637-2.37.869-4.57 2.305-6.472 4.223l-1.346 1.357M116.94 68v48.911c0 2.819 1.944 5.342 4.694 5.963 3.443.777 6.204.88 10.084-1.992m-25.7-36.089h21.845" stroke="#000" stroke-width="12" stroke-linecap="round" stroke-linejoin="round"/></svg>
